X: 39434
T: Tarantella
R: jig
M: 6/8
K: Aminor
|:a2 a|e2 e a2 a|e2 e ede|f2 f fgf|e3 efe|
[1 d2 d ded|c2 c cdc|B2 d c2 B|A3:|
[2 d3 ded|c3 cdc|B2 d c2 B|A2 B||
|:cBc|dcB c2 A|ABc B2 B|dcB c2 A|A2 B cBc|
dcB c2 A|A2 c B2 d|c2 B A3|1 A2 B:|2 A3||
|:a2 a|e2 e a2 a|e2 e ede|f2 f fgf|e3 efe|
[1 d2 d ded|c2 c cdc|B2 d c2 B|A3:|
[2 d3 ded|c3 cdc|B2 d c2 B|A2 B||
K: CMaj
|:c3|cGc ece|g2 g gag|f2 f fgf|e3 e3|
cGc ece|g2 g g2 a|bag fed|c3:|

